**harmony	**harte	**kern	**silbe	**kern.1	**silbe.1	**rhyme	**timestamp	**phrase
*M4/4	*M4/4	*ICvox	*	*ICvox	*	*	*	*
*	*	*VRlead	*	*VRbacking*VRharmonize	*	*	*	*
*	*	*Hstimme	*	*Nstimme	*	*	*	*
*C:	*C:	*C:	*	*C:	*	*	*	*
*	*	*M4/4	*	*M4/4	*	*	*	*
*	*	*clefC3	*	*clefG2	*	*	*	*
1r;	1r	r;	.	r;	.	.	0	.
=1	=1	=1	=1	=1	=1	=1	=1	=1
*>Letter>A	*>Letter>A	*>Letter>A	*>Letter>A	*>Letter>A	*>Letter>A	*>Letter>A	*>Letter>A	*>Letter>A
*>Label>Intro	*>Label>Intro	*>Label>Intro	*>Label>Intro	*>Label>Intro	*>Label>Intro	*>Label>Intro	*>Label>Intro	*>Label>Intro
1CM	C:maj	1r	.	1r	.	.	0.232	newline
=2	=2	=2	=2	=2	=2	=2	=2	=2
1CM	C:maj	1r	.	1r	.	.	1.998	.
=3	=3	=3	=3	=3	=3	=3	=3	=3
1CM	C:maj	1r	.	1r	.	.	3.765	.
=4	=4	=4	=4	=4	=4	=4	=4	=4
1CM	C:maj	1r	.	1r	.	.	5.531	.
=5	=5	=5	=5	=5	=5	=5	=5	=5
*>Letter>B	*>Letter>B	*>Letter>B	*>Letter>B	*>Letter>B	*>Letter>B	*>Letter>B	*>Letter>B	*>Letter>B
*>Label>Verse	*>Label>Verse	*>Label>Verse	*>Label>Verse	*>Label>Verse	*>Label>Verse	*>Label>Verse	*>Label>Verse	*>Label>Verse
1CM	C:maj	4r	.	1r	.	.	7.297	newline
.	.	8c	To-	.	.	.	.	.
.	.	[8c	-night	.	.	A	.	.
.	.	4c]	_	.	.	.	.	.
.	.	8d	you're	.	.	.	.	.
.	.	[8d	mine	.	.	A	.	.
=6	=6	=6	=6	=6	=6	=6	=6	=6
1CM	C:maj	8d]	_	1r	.	.	9.027	.
.	.	[8c	_	.	.	.	.	.
.	.	4c]	_	.	.	.	.	.
.	.	4r	.	.	.	.	.	.
.	.	4e	com-	.	.	.	.	.
=7	=7	=7	=7	=7	=7	=7	=7	=7
1FM	F:maj	4.e	-plete	1r	.	(B	10.757	.
.	.	8d	_	.	.	.	.	.
.	.	4d	ly	.	.	b)	.	.
.	.	4r	.	.	.	.	.	.
=8	=8	=8	=8	=8	=8	=8	=8	=8
1GM	G:maj	1r	.	1r	.	.	12.487	.
=9	=9	=9	=9	=9	=9	=9	=9	=9
1CM	C:maj	4r	.	1r	.	.	14.217	newline
.	.	8c	you	.	.	.	.	.
.	.	[8c	give	.	.	.	.	.
.	.	8c]	_	.	.	.	.	.
.	.	8c	y-	.	.	.	.	.
.	.	8d	-your	.	.	.	.	.
.	.	[8d	love	.	.	.	.	.
=10	=10	=10	=10	=10	=10	=10	=10	=10
1CM	C:maj	8d]	_	1r	.	.	15.966	.
.	.	[8c	_	.	.	.	.	.
.	.	4c]	_	.	.	.	.	.
.	.	4r	.	.	.	.	.	.
.	.	4a	so	.	.	.	.	.
=11	=11	=11	=11	=11	=11	=11	=11	=11
1GMm	G:7/5	4.a	sweet	1r	.	(B	17.714	.
.	.	8g	_	.	.	.	.	.
.	.	4g	ly	.	.	b)	.	.
.	.	4r	.	.	.	.	.	.
=12	=12	=12	=12	=12	=12	=12	=12	=12
1GMm	G:7/5	2r	.	1r	.	.	19.462	.
.	.	4r	.	.	.	.	.	.
.	.	8f	To-	.	.	.	.	.
.	.	[8e	-night	.	.	A	.	.
=13	=13	=13	=13	=13	=13	=13	=13	=13
*>Letter>C	*>Letter>C	*>Letter>C	*>Letter>C	*>Letter>C	*>Letter>C	*>Letter>C	*>Letter>C	*>Letter>C
*>Label>Chorus	*>Label>Chorus	*>Label>Chorus	*>Label>Chorus	*>Label>Chorus	*>Label>Chorus	*>Label>Chorus	*>Label>Chorus	*>Label>Chorus
1EM	E:maj	2e]	_	1r	.	.	21.211	newline
.	.	4r	.	.	.	.	.	.
.	.	8B	the	.	.	.	.	.
.	.	8Bq	_	.	.	.	.	.
.	.	[8e	light	.	.	A	.	.
=14	=14	=14	=14	=14	=14	=14	=14	=14
1EM	E:maj	2e]	_	1r	.	.	22.964	.
.	.	8r	.	.	.	.	.	.
.	.	16dQ	_	.	.	.	.	.
.	.	16eQ	_	.	.	.	.	.
.	.	4.d	of	.	.	.	.	.
=15	=15	=15	=15	=15	=15	=15	=15	=15
1Am	A:min	8d	love	1r	.	.	24.717	.
.	.	8c	is	.	.	.	.	.
.	.	8B	in	.	.	.	.	.
.	.	[8d	your	.	.	.	.	.
.	.	8d]	_	.	.	.	.	.
.	.	8c	eyes	.	.	A	.	.
.	.	[4A	_	.	.	.	.	.
=16	=16	=16	=16	=16	=16	=16	=16	=16
1Am	A:min	2A]	_	1r	.	.	26.47	.
.	.	2r	.	.	.	.	.	.
=17	=17	=17	=17	=17	=17	=17	=17	=17
*	*	*	*	*clefC3	*	*	*	*
1FM	F:maj	4r	.	4r	.	.	28.223	newline
.	.	4c	Will	4c 4f 4a	Will	.	.	.
.	.	4c	you	4c 4f 4a	you	.	.	.
.	.	4f	still	4c 4f 4a	still	.	.	.
=18	=18	=18	=18	=18	=18	=18	=18	=18
1GM	G:maj	4e	love	4d 4g 4b	love	.	29.958	.
.	.	4d	me	4d 4g 4b	me	B	.	.
.	.	4r	.	4r	.	.	.	.
.	.	4d	to-	4d 4g 4b	to-	.	.	.
=19	=19	=19	=19	=19	=19	=19	=19	=19
1CM	C:maj	4.d	-mo-	4.c 4.e 4.g	-mo-	.	31.694	.
.	.	8c	-r-	8c 8e 8g	-r-	.	.	.
.	.	2c	-row?	[2c [2e [2g	-row	.	.	.
=20	=20	=20	=20	=20	=20	=20	=20	=20
1CM	C:maj	1r	.	2.c] 2.e] 2.g]	_	.	33.429	.
.	.	.	.	4r	.	.	.	.
=21	=21	=21	=21	=21	=21	=21	=21	=21
*>Letter>B	*>Letter>B	*>Letter>B	*>Letter>B	*>Letter>B	*>Letter>B	*>Letter>B	*>Letter>B	*>Letter>B
*>Label>Verse	*>Label>Verse	*>Label>Verse	*>Label>Verse	*>Label>Verse	*>Label>Verse	*>Label>Verse	*>Label>Verse	*>Label>Verse
1CM	C:maj	4r	.	4r	.	.	35.165	newline
.	.	4c	Is	8c 8e 8g	Sha-	.	.	.
.	.	.	.	8c 8e 8g	-la-	.	.	.
.	.	4c	this	4c 4e 4g	-la-	.	.	.
.	.	4d	a	4c 4e 4g	-la!	.	.	.
=22	=22	=22	=22	=22	=22	=22	=22	=22
1CM	C:maj	4d	las-	4r	.	.	36.91	.
.	.	4c	-ting	8c 8e 8g	Sha-	.	.	.
.	.	.	.	8c 8e 8g	-la-	.	.	.
.	.	2r	.	4c 4e 4g	-la-	.	.	.
.	.	.	.	4c 4e 4g	-la!	.	.	.
=23	=23	=23	=23	=23	=23	=23	=23	=23
1FM	F:maj	4.e	trea	4r	.	(C	38.654	.
.	.	.	.	8c 8f 8a	Sha-	.	.	.
.	.	8d	_	8c 8f 8a	-la-	.	.	.
.	.	[2d	sure	4c 4f 4a	-la-	c)	.	.
.	.	.	.	4c 4f 4a	-la!	.	.	.
=24	=24	=24	=24	=24	=24	=24	=24	=24
1GM	G:maj	8d]	_	4r	.	.	40.399	.
.	.	8r	.	.	.	.	.	.
.	.	4r	.	8d 8g 8b	Sha-	.	.	.
.	.	.	.	8d 8g 8b	-la-	.	.	.
.	.	2r	.	4d 4g 4b	-la-	.	.	.
.	.	.	.	4d 4g 4b	-la!	.	.	.
=25	=25	=25	=25	=25	=25	=25	=25	=25
1CM	C:maj	4r	.	4r	.	.	42.144	newline
.	.	4c	or	8c 8e 8g	Sha-	.	.	.
.	.	.	.	8c 8e 8g	-la-	.	.	.
.	.	4c	just	4c 4e 4g	-la-	.	.	.
.	.	4d	a	4c 4e 4g	-la!	.	.	.
=26	=26	=26	=26	=26	=26	=26	=26	=26
1CM	C:maj	4d	mo-	4r	.	.	43.89	.
.	.	4c	-ment's	8c 8e 8g	Sha-	.	.	.
.	.	.	.	8c 8e 8g	-la-	.	.	.
.	.	2r	.	4c 4e 4g	-la-	.	.	.
.	.	.	.	4c 4e 4g	-la!	.	.	.
=27	=27	=27	=27	=27	=27	=27	=27	=27
1GMm	G:7/5	4.a	pleas	4r	.	(C	45.635	.
.	.	.	.	8d 8g 8b	Sha-	.	.	.
.	.	8g	_	8d 8g 8b	-la-	.	.	.
.	.	[2g	sure	4d 4g 4b	-la-	c)	.	.
.	.	.	.	4d 4g 4b	-la!	.	.	.
=28	=28	=28	=28	=28	=28	=28	=28	=28
1GMm	G:7/5	4.g]	_	4r	.	.	47.38	.
.	.	.	.	8d 8g 8b	Sha-	.	.	.
.	.	8r	.	8d 8g 8b	-la-	.	.	.
.	.	4r	.	4d 4g 4b	-la-	.	.	.
.	.	8f	Can	4d 4g 4b	-la!	.	.	.
.	.	[8e	I	.	.	.	.	.
=29	=29	=29	=29	=29	=29	=29	=29	=29
*>Letter>C	*>Letter>C	*>Letter>C	*>Letter>C	*>Letter>C	*>Letter>C	*>Letter>C	*>Letter>C	*>Letter>C
*>Label>Chorus	*>Label>Chorus	*>Label>Chorus	*>Label>Chorus	*>Label>Chorus	*>Label>Chorus	*>Label>Chorus	*>Label>Chorus	*>Label>Chorus
1EM	E:maj	2.e]	_	1r	.	.	49.126	newline
.	.	8B	be	.	.	.	.	.
.	.	8Bq	_	.	.	.	.	.
.	.	[8e	lieve	.	.	.	.	.
=30	=30	=30	=30	=30	=30	=30	=30	=30
1EM	E:maj	2e]	_	1r	.	.	50.852	.
.	.	8r	.	.	.	.	.	.
.	.	16dQ	_	.	.	.	.	.
.	.	16eQ	_	.	.	.	.	.
.	.	4.d	the	.	.	.	.	.
=31	=31	=31	=31	=31	=31	=31	=31	=31
1Am	A:min	8d	ma-	1r	.	.	52.578	.
.	.	8c	-gic	.	.	.	.	.
.	.	8B	of	.	.	.	.	.
.	.	[8d	your	.	.	.	.	.
.	.	6d]	_	.	.	.	.	.
.	.	6c	sighs	.	.	A	.	.
.	.	[6A	_	.	.	.	.	.
=32	=32	=32	=32	=32	=32	=32	=32	=32
1Am	A:min	2A]	_	1r	.	.	54.304	.
.	.	2r	.	.	.	.	.	.
=33	=33	=33	=33	=33	=33	=33	=33	=33
1FM	F:maj	4r	.	4r	.	.	56.03	newline
.	.	4c	Will	4c 4f 4a	Will	.	.	.
.	.	4c	you	4c 4f 4a	you	.	.	.
.	.	4e	still	4c 4f 4a	still	.	.	.
=34	=34	=34	=34	=34	=34	=34	=34	=34
1GM	G:maj	4e	love	4d 4g 4b	love	.	57.793	.
.	.	4d	me	4d 4g 4b	me	.	.	.
.	.	4r	.	4r	.	.	.	.
.	.	4d	to-	4d 4g 4b	to-	.	.	.
=35	=35	=35	=35	=35	=35	=35	=35	=35
1CM	C:maj	4.d	-mo-	4.c 4.e 4.g	-mo-	.	59.557	.
.	.	8c	-r-	8c 8e 8g	-r-	.	.	.
.	.	4c	-row?	[2c [2e [2g	-row	.	.	.
.	.	4r	.	.	.	.	.	.
=36	=36	=36	=36	=36	=36	=36	=36	=36
1CM	C:maj	1r	.	2.c] 2.e] 2.g]	_	.	61.32	.
.	.	.	.	4r	.	.	.	.
=37	=37	=37	=37	=37	=37	=37	=37	=37
*>Letter>D	*>Letter>D	*>Letter>D	*>Letter>D	*>Letter>D	*>Letter>D	*>Letter>D	*>Letter>D	*>Letter>D
*>Label>Bridge	*>Label>Bridge	*>Label>Bridge	*>Label>Bridge	*>Label>Bridge	*>Label>Bridge	*>Label>Bridge	*>Label>Bridge	*>Label>Bridge
1FM	F:maj	4r	.	1r	.	.	63.084	newline
.	.	4a	To-	.	.	.	.	.
.	.	4a	-night	.	.	.	.	.
.	.	4a	with	.	.	.	.	.
=38	=38	=38	=38	=38	=38	=38	=38	=38
1FM	F:maj	2a	words	1r	.	.	64.839	.
.	.	4r	.	.	.	.	.	.
.	.	4a	un-	.	.	.	.	.
=39	=39	=39	=39	=39	=39	=39	=39	=39
1Em	E:min	4.a	-spo	1r	.	(D	66.593	.
.	.	8g	_	.	.	.	.	.
.	.	2g	ken	.	.	d)	.	.
=40	=40	=40	=40	=40	=40	=40	=40	=40
1Em	E:min	1r	.	1r	.	.	68.348	.
=41	=41	=41	=41	=41	=41	=41	=41	=41
1FM	F:maj	4r	.	1r	.	.	70.103	newline
.	.	4a	you	.	.	.	.	.
.	.	4a	said	.	.	.	.	.
.	.	8a	that	.	.	.	.	.
.	.	8g	I-	.	.	.	.	.
=42	=42	=42	=42	=42	=42	=42	=42	=42
1FM	F:maj	4a	-I'm	1r	.	.	71.858	.
.	.	8a	the	.	.	.	.	.
.	.	[8g	o	.	.	.	.	.
.	.	8g]	_	.	.	.	.	.
.	.	8g	n-	.	.	.	.	.
.	.	4f	-ly	.	.	.	.	.
=43	=43	=43	=43	=43	=43	=43	=43	=43
1CM	C:maj	4.e	one	1r	.	E	73.613	.
.	.	8d	_	.	.	.	.	.
.	.	4.c	_	.	.	.	.	.
.	.	8A	_	.	.	.	.	.
=44	=44	=44	=44	=44	=44	=44	=44	=44
1CM	C:maj	2G	_	1r	.	.	75.369	.
.	.	2r	.	.	.	.	.	.
=45	=45	=45	=45	=45	=45	=45	=45	=45
1FM	F:maj	4r	.	1r	.	.	77.124	newline
.	.	8a	But-	.	.	.	.	.
.	.	8g	-tw-	.	.	.	.	.
.	.	4a	-will	.	.	.	.	.
.	.	4a	my	.	.	.	.	.
=46	=46	=46	=46	=46	=46	=46	=46	=46
1FM	F:maj	2a	heart	1r	.	.	78.895	.
.	.	4r	.	.	.	.	.	.
.	.	4a	be	.	.	.	.	.
=47	=47	=47	=47	=47	=47	=47	=47	=47
1Em	E:min	4.a	bro	1r	.	(D	80.665	.
.	.	8g	_	.	.	.	.	.
.	.	2g	ken	.	.	d)	.	.
=48	=48	=48	=48	=48	=48	=48	=48	=48
1Em	E:min	2r	.	1r	.	.	82.436	.
.	.	4r	.	.	.	.	.	.
.	.	8e	when	.	.	.	.	.
.	.	8d	the	.	.	.	.	.
=49	=49	=49	=49	=49	=49	=49	=49	=49
1Am	A:min	8d	night	4r	.	.	84.207	newline
.	.	[8c	_	.	.	.	.	.
.	.	4c]	_	8A 8c 8e	When	.	.	.
.	.	.	.	8A 8c 8e	the	.	.	.
.	.	4r	.	4A 4c 4e	night!	.	.	.
.	.	8e	meets	4r	.	.	.	.
.	.	8e	the	.	.	.	.	.
=50	=50	=50	=50	=50	=50	=50	=50	=50
1DMm	D:7	2.d	mor-	4r	.	.	85.968	.
.	.	.	.	8d 8f# 8a	Meets	.	.	.
.	.	.	.	8d 8f# 8a	the	.	.	.
.	.	.	.	4d 4f# 4a	mor-	.	.	.
.	.	4a	-ning	4d 4f# 4a	-ning	.	.	.
=51	=51	=51	=51	=51	=51	=51	=51	=51
1FM	F:maj	[2a	sun?	[1d 1f 1a	sun?	E	87.729	.
.	.	8a]	_	.	.	.	.	.
.	.	8g	_	.	.	.	.	.
.	.	4a	_	.	.	.	.	.
=52	=52	=52	=52	=52	=52	=52	=52	=52
1GM	G:maj	1g	_	1d] 1g 1b	_	.	89.49	.
=53	=53	=53	=53	=53	=53	=53	=53	=53
*>Letter>B	*>Letter>B	*>Letter>B	*>Letter>B	*>Letter>B	*>Letter>B	*>Letter>B	*>Letter>B	*>Letter>B
*>Label>Verse	*>Label>Verse	*>Label>Verse	*>Label>Verse	*>Label>Verse	*>Label>Verse	*>Label>Verse	*>Label>Verse	*>Label>Verse
1CM	C:maj	4r	.	4r	.	.	91.251	newline
.	.	4c	I	8c 8e 8g	_	.	.	.
.	.	.	.	8c 8e 8g	_	.	.	.
.	.	4c	like	4c 4e 4g	_	.	.	.
.	.	8d	to	4c 4e 4g	_	.	.	.
.	.	[8d	know	.	.	.	.	.
=54	=54	=54	=54	=54	=54	=54	=54	=54
1CM	C:maj	8d]	_	4r	.	.	92.995	.
.	.	4c	_	.	.	.	.	.
.	.	.	.	8c 8e 8g	_	.	.	.
.	.	8r	.	8c 8e 8g	_	.	.	.
.	.	4r	.	4c 4e 4g	_	.	.	.
.	.	8e	that	4c 4e 4g	_	.	.	.
.	.	8e	y-	.	.	.	.	.
=55	=55	=55	=55	=55	=55	=55	=55	=55
1FM	F:maj	4.e	-your	4r	.	.	94.739	.
.	.	.	.	8c 8f 8a	_	.	.	.
.	.	8d	_	8c 8f 8a	_	.	.	.
.	.	[2d	love	4c 4f 4a	_	F	.	.
.	.	.	.	4c 4f 4a	_	.	.	.
=56	=56	=56	=56	=56	=56	=56	=56	=56
1GM	G:maj	8d]	_	4r	.	.	96.484	.
.	.	8r	.	.	.	.	.	.
.	.	4r	.	8d 8g 8b	_	.	.	.
.	.	.	.	8d 8g 8b	_	.	.	.
.	.	2r	.	4d 4g 4b	_	.	.	.
.	.	.	.	4d 4g 4b	_	.	.	.
=57	=57	=57	=57	=57	=57	=57	=57	=57
1CM	C:maj	4r	.	4r	.	.	98.228	newline
.	.	8c	is	8c 8e 8g	_	.	.	.
.	.	8c	a	8c 8e 8g	_	.	.	.
.	.	4c	love	4c 4e 4g	_	F	.	.
.	.	4d	I	4c 4e 4g	_	.	.	.
=58	=58	=58	=58	=58	=58	=58	=58	=58
1CM	C:maj	8.~d	can	4r	.	.	99.976	.
.	.	[16~c	_	.	.	.	.	.
.	.	4~c]	_	8c 8e 8g	_	.	.	.
.	.	.	.	8c 8e 8g	_	.	.	.
.	.	4r	.	4c 4e 4g	_	.	.	.
.	.	4a	be	4c 4e 4g	_	.	.	.
=59	=59	=59	=59	=59	=59	=59	=59	=59
1GMm	G:7/5	4.a	sure	4r	.	.	101.723	.
.	.	.	.	8d 8g 8b	_	.	.	.
.	.	8g	_	8d 8g 8b	_	.	.	.
.	.	[2g	of	4d 4g 4b	_	F	.	.
.	.	.	.	4d 4g 4b	_	.	.	.
=60	=60	=60	=60	=60	=60	=60	=60	=60
1GMm	G:7/5	4g]	_	4r	.	.	103.471	.
.	.	4r	.	8d 8g 8b	_	.	.	.
.	.	.	.	8d 8g 8b	_	.	.	.
.	.	4r	.	4d 4g 4b	_	.	.	.
.	.	4f	So	4d 4g 4b	_	.	.	.
=61	=61	=61	=61	=61	=61	=61	=61	=61
*>Letter>C	*>Letter>C	*>Letter>C	*>Letter>C	*>Letter>C	*>Letter>C	*>Letter>C	*>Letter>C	*>Letter>C
*>Label>Chorus	*>Label>Chorus	*>Label>Chorus	*>Label>Chorus	*>Label>Chorus	*>Label>Chorus	*>Label>Chorus	*>Label>Chorus	*>Label>Chorus
1EM	E:maj	2.e	tell	1r	.	.	105.219	newline
.	.	8B	me	.	.	.	.	.
.	.	8Bq	_	.	.	.	.	.
.	.	[8e	now	.	.	.	.	.
=62	=62	=62	=62	=62	=62	=62	=62	=62
1EM	E:maj	2e]	_	1r	.	.	106.974	.
.	.	4r	.	.	.	.	.	.
.	.	4d	and	.	.	.	.	.
=63	=63	=63	=63	=63	=63	=63	=63	=63
1Am	A:min	4d	I	1r	.	.	108.729	.
.	.	4c	won't	.	.	.	.	.
.	.	4B	ask	.	.	.	.	.
.	.	8d	a-	.	.	.	.	.
.	.	[8c	-gain	.	.	.	.	.
=64	=64	=64	=64	=64	=64	=64	=64	=64
1Am	A:min	16c]	_	1r	.	.	110.484	.
.	.	[8.A	_	.	.	.	.	.
.	.	2A]	_	.	.	.	.	.
.	.	4r	.	.	.	.	.	.
=65	=65	=65	=65	=65	=65	=65	=65	=65
1FM	F:maj	4r	.	4r	.	.	112.239	newline
.	.	4c	Will	4c 4f 4a	Will	.	.	.
.	.	4c	you	4c 4f 4a	you	.	.	.
.	.	4e	still	4c 4f 4a	still	.	.	.
=66	=66	=66	=66	=66	=66	=66	=66	=66
1GM	G:maj	4e	love	4d 4g 4b	love	.	114.002	.
.	.	4d	me	4d 4g 4b	me	.	.	.
.	.	4r	.	4r	.	.	.	.
.	.	4d	to-	4d 4g 4b	to-	.	.	.
=67	=67	=67	=67	=67	=67	=67	=67	=67
1CM	C:maj	4.d	-mo-	4.c 4.e 4.g	-mo-	.	115.766	.
.	.	8c	-r-	8c 8e 8g	-r-	.	.	.
.	.	4c	-row?	[2c [2e [2g	-row	.	.	.
.	.	4r	.	.	.	.	.	.
=68	=68	=68	=68	=68	=68	=68	=68	=68
1CM	C:maj	1r	.	2c_ 2e_ 2g_	_	.	117.529	.
.	.	.	.	8c] 8e] 8g]	_	.	.	.
.	.	.	.	8r	.	.	.	.
.	.	.	.	4r	.	.	.	.
=69	=69	=69	=69	=69	=69	=69	=69	=69
*>Letter>B	*>Letter>B	*>Letter>B	*>Letter>B	*>Letter>B	*>Letter>B	*>Letter>B	*>Letter>B	*>Letter>B
*>Label>Instrumental	*>Label>Instrumental	*>Label>Instrumental	*>Label>Instrumental	*>Label>Instrumental	*>Label>Instrumental	*>Label>Instrumental	*>Label>Instrumental	*>Label>Instrumental
1CM	C:maj	1r	.	1r	.	.	119.292	newline
=70	=70	=70	=70	=70	=70	=70	=70	=70
1CM	C:maj	1r	.	1r	.	.	121.02	.
=71	=71	=71	=71	=71	=71	=71	=71	=71
1FM	F:maj	1r	.	1r	.	.	122.747	.
=72	=72	=72	=72	=72	=72	=72	=72	=72
1GM	G:maj	1r	.	1r	.	.	124.474	.
=73	=73	=73	=73	=73	=73	=73	=73	=73
1CM	C:maj	1r	.	1r	.	.	126.202	newline
=74	=74	=74	=74	=74	=74	=74	=74	=74
1CM	C:maj	1r	.	1r	.	.	127.967	.
=75	=75	=75	=75	=75	=75	=75	=75	=75
1GMm	G:7/5	1r	.	1r	.	.	129.732	.
=76	=76	=76	=76	=76	=76	=76	=76	=76
1GMm	G:7/5	2r	.	1r	.	.	131.497	.
.	.	4r	.	.	.	.	.	.
.	.	4f	So	.	.	.	.	.
=77	=77	=77	=77	=77	=77	=77	=77	=77
*>Letter>C2	*>Letter>C2	*>Letter>C2	*>Letter>C2	*>Letter>C2	*>Letter>C2	*>Letter>C2	*>Letter>C2	*>Letter>C2
*>Label>Chorus	*>Label>Chorus	*>Label>Chorus	*>Label>Chorus	*>Label>Chorus	*>Label>Chorus	*>Label>Chorus	*>Label>Chorus	*>Label>Chorus
1EM	E:maj	2.e	tell	1r	.	.	133.262	newline
.	.	8B	me	.	.	.	.	.
.	.	8Bq	_	.	.	.	.	.
.	.	[8e	now	.	.	.	.	.
=78	=78	=78	=78	=78	=78	=78	=78	=78
1EM	E:maj	2e]	_	1r	.	.	135.021	.
.	.	4r	.	.	.	.	.	.
.	.	4d	and	.	.	.	.	.
=79	=79	=79	=79	=79	=79	=79	=79	=79
1Am	A:min	4d	I	1r	.	.	136.781	.
.	.	4c	won't	.	.	.	.	.
.	.	4B	ask	.	.	.	.	.
.	.	8d	a-	.	.	.	.	.
.	.	[8c	-gain	.	.	.	.	.
=80	=80	=80	=80	=80	=80	=80	=80	=80
1Am	A:min	16c]	_	1r	.	.	138.541	.
.	.	[8.A	_	.	.	.	.	.
.	.	2A]	_	.	.	.	.	.
.	.	4r	.	.	.	.	.	.
=81	=81	=81	=81	=81	=81	=81	=81	=81
1FM	F:maj	4r	.	4r	.	.	140.301	newline
.	.	4c	Will	4c 4f 4a	Will	.	.	.
.	.	4c	you	4c 4f 4a	you	.	.	.
.	.	4e	still	4c 4f 4a	still	.	.	.
=82	=82	=82	=82	=82	=82	=82	=82	=82
1GM	G:maj	4e	love	4d 4g 4b	love	.	142.077	.
.	.	4d	me	4d 4g 4b	me	.	.	.
.	.	4r	.	4r	.	.	.	.
.	.	4d	to-	4d 4g 4b	to-	.	.	.
=83	=83	=83	=83	=83	=83	=83	=83	=83
1CM	C:maj	4.d	-mo-	4.c 4.e 4.g	-mo-	.	143.854	.
.	.	8c	-r-	8c 8e 8g	-r-	.	.	.
.	.	4c	-row?	[2c [2e [2g	-row	.	.	.
.	.	4r	.	.	.	.	.	.
=84	=84	=84	=84	=84	=84	=84	=84	=84
1CM	C:maj	1r	.	2c_ 2e_ 2g_	_	.	145.631	.
.	.	.	.	8c] 8e] 8g]	_	.	.	.
.	.	.	.	8r	.	.	.	.
.	.	.	.	4r	.	.	.	.
=85	=85	=85	=85	=85	=85	=85	=85	=85
1FM	F:maj	4r	.	4r	.	.	147.407	newline
.	.	4c	Will	4c 4f 4a	Will	.	.	.
.	.	4c	you	4c 4f 4a	you	.	.	.
.	.	4e	still	4c 4f 4a	still	.	.	.
=86	=86	=86	=86	=86	=86	=86	=86	=86
1GM	G:maj	4e	love	4d 4g 4b	love	.	149.151	.
.	.	4d	me	4d 4g 4b	me	.	.	.
.	.	4r	.	4r	.	.	.	.
.	.	4d	to-	4d 4g 4b	to-	.	.	.
=87	=87	=87	=87	=87	=87	=87	=87	=87
1CM	C:maj	4.d	-mo-	4.c 4.e 4.g	-mo-	.	150.895	.
.	.	8c	-r-	8c 8e 8g	-r-	.	.	.
.	.	4c	-row?	[2c [2e [2g	-row	.	.	.
.	.	4r	.	.	.	.	.	.
=88	=88	=88	=88	=88	=88	=88	=88	=88
1CM	C:maj	1r	.	2c_ 2e_ 2g_	_	.	152.639	.
.	.	.	.	8c] 8e] 8g]	_	.	.	.
.	.	.	.	8r	.	.	.	.
.	.	.	.	4r	.	.	.	.
=89	=89	=89	=89	=89	=89	=89	=89	=89
*>Label>>Fadeout	*>Label>>Fadeout	*>Label>>Fadeout	*>Label>>Fadeout	*>Label>>Fadeout	*>Label>>Fadeout	*>Label>>Fadeout	*>Label>>Fadeout	*>Label>>Fadeout
1FM	F:maj	4r	.	4r	.	.	154.382	newline
.	.	4c	Will	4c 4f 4a	Will	.	.	.
.	.	4c	you	4c 4f 4a	you	.	.	.
.	.	4e	still	4c 4f 4a	still	.	.	.
=90	=90	=90	=90	=90	=90	=90	=90	=90
1GM	G:maj	4e	love	4d 4g 4b	love	.	156.021	.
.	.	4d	me	4d 4g 4b	me	.	.	.
.	.	4r	.	4r	.	.	.	.
.	.	4d	to-	4d 4g 4b	to-	.	.	.
=91	=91	=91	=91	=91	=91	=91	=91	=91
1CM	C:maj	4.d	-mo-	4.c 4.e 4.g	-mo-	.	157.66	.
.	.	8c	-r-	8c 8e 8g	-r-	.	.	.
.	.	4c	-row?	[2c [2e [2g	-row	.	.	.
.	.	4r	.	.	.	.	.	.
=92	=92	=92	=92	=92	=92	=92	=92	=92
1CM	C:maj	1r	.	2c_ 2e_ 2g_	_	.	159.299	.
.	.	.	.	8c] 8e] 8g]	_	.	.	.
.	.	.	.	8r	.	.	.	.
.	.	.	.	4r	.	.	.	.
1r;	1r	r;	.	r;	.	.	160.938	.
1r;	1r	r;	.	r;	.	.	163.579	.
*-	*-	*-	*-	*-	*-	*-	*-	*-
!!!BillboardChartDate: 1961/01/09
!!!BillboardPeak: 1
!!!BillboardWeeksOnChart: 19
!!!COC: The Shirelles
!!!ENC: Nathaniel Condit-Schultz
!!!EST: Awating manual error checking and editing.
!!!OTL: Will You Love Me Tomorrow
!!!RDF**chordsym: original McGill chord annotation + (implied pitch class set, with bass pitch in first position)
!!!RDF**harmony: **recip + pitch class of root + harmonic quality
!!!RDF**leadinstrument: original McGill primary instrumentation annotation
!!!RDF**phrase: newline = linebreak in original McGill transcription
!!!RDF**timestamp: McGill audio timestamp in seconds
!!!RDT: 2017/01/12/
!!!SampleActualRank: 5
!!!SampleID#: 1239
!!!SampleTargetRank: 6
!!!MBID: 0ca12a54-b5b1-4029-b4eb-4824eb210845